communes/6703.svg

<?xml version="1.0" encoding="UTF-8" standalone="no"?>
<!-- Created with Inkscape (http://www.inkscape.org/) -->

<svg
   xmlns:dc="http://purl.org/dc/elements/1.1/"
   xmlns:cc="http://creativecommons.org/ns#"
   xmlns:rdf="http://www.w3.org/1999/02/22-rdf-syntax-ns#"
   xmlns:svg="http://www.w3.org/2000/svg"
   xmlns="http://www.w3.org/2000/svg"
   xmlns:sodipodi="http://sodipodi.sourceforge.net/DTD/sodipodi-0.dtd"
   xmlns:inkscape="http://www.inkscape.org/namespaces/inkscape"
   version="1.0"
   width="208.86046"
   height="244.65999"
   id="svg2780"
   inkscape:version="0.92.5 (2060ec1f9f, 2020-04-08)"
   sodipodi:docname="Bourrignon-blazon.svg">
  <metadata
     id="metadata27">
    <rdf:RDF>
      <cc:Work
         rdf:about="">
        <dc:format>image/svg+xml</dc:format>
        <dc:type
           rdf:resource="http://purl.org/dc/dcmitype/StillImage" />
        <dc:title></dc:title>
      </cc:Work>
    </rdf:RDF>
  </metadata>
  <sodipodi:namedview
     pagecolor="#ffffff"
     bordercolor="#666666"
     borderopacity="1"
     objecttolerance="10"
     gridtolerance="10"
     guidetolerance="10"
     inkscape:pageopacity="0"
     inkscape:pageshadow="2"
     inkscape:window-width="3287"
     inkscape:window-height="1417"
     id="namedview25"
     showgrid="false"
     inkscape:zoom="2.8284271"
     inkscape:cx="72.286242"
     inkscape:cy="101.28783"
     inkscape:window-x="-8"
     inkscape:window-y="-8"
     inkscape:window-maximized="1"
     inkscape:current-layer="svg2780"
     inkscape:measure-start="104.255,149.787"
     inkscape:measure-end="104.255,126.383"
     showguides="true"
     inkscape:object-paths="true"
     inkscape:snap-intersection-paths="true" />
  <defs
     id="defs2782" />
  <path
     id="path4212-6"
     style="fill:#ffffff;fill-opacity:1;fill-rule:evenodd;stroke:#000000;stroke-width:2;stroke-linecap:butt;stroke-miterlimit:4;stroke-dashoffset:0;stroke-opacity:1;stroke-dasharray:none"
     d="M 1.000033,149.10355 V 0.99999834 H 207.89951 V 149.10355 c 0,51.44535 -51.75421,94.56785 -103.46927,94.56785 -51.71506,0 -103.430207,-43.1225 -103.430207,-94.56785 z"
     inkscape:connector-curvature="0"
     sodipodi:nodetypes="sccscs" />
  <g
     id="g6287"
     transform="matrix(0.96108607,0,0,0.96121064,4.0762332,3.9559224)"
     style="stroke-width:1.04042208">
    <path
       sodipodi:nodetypes="cccccc"
       inkscape:connector-curvature="0"
       d="m 167.3481,181.38854 -4.71354,-29.88987 9.9047,-19.44544 H 50.734912 l -8.308505,49.33531 z"
       style="opacity:1;fill:#000000;fill-opacity:1;stroke:#ffffff;stroke-width:1.042503;stroke-miterlimit:11;stroke-dasharray:none;stroke-dashoffset:4.57999992;stroke-opacity:1"
       id="path5900-3" />
    <path
       sodipodi:nodetypes="ccccc"
       inkscape:connector-curvature="0"
       d="M 31.25,199.35405 37,181.03499 h 135.5 l 5.75,18.31906 z"
       style="opacity:1;fill:#000000;fill-opacity:1;stroke:#ffffff;stroke-width:1.042503;stroke-miterlimit:11;stroke-dasharray:none;stroke-dashoffset:4.57999992;stroke-opacity:1"
       id="path5882-2" />
    <path
       sodipodi:nodetypes="ccssscc"
       inkscape:connector-curvature="0"
       d="M 104.63045,199.15584 H 86.142887 v -33.76217 c 0,-10.1146 8.930218,-18.11302 18.326073,-18.11302 9.39585,0 18.24861,7.99842 18.24861,18.11302 v 33.76217 h -18.48756"
       style="opacity:1;fill:#000000;fill-opacity:1;stroke:#ffffff;stroke-width:1.042503;stroke-miterlimit:11;stroke-dasharray:none;stroke-dashoffset:4.57999992;stroke-opacity:1"
       id="path6125-8-8" />
    <path
       sodipodi:nodetypes="ccccccccccccccccccc"
       inkscape:connector-curvature="0"
       d="m 73.581562,24.936403 v 12.625002 h 10.21953 v 7.57979 H 94.02061 v -7.57979 h 14.21953 v 7.57979 h 10.21951 v -7.57979 h 14.21953 v 7.57979 h 10.21952 v -7.57979 h 12.21952 v 21.14324 H 53.578962 V 24.936403 Z"
       style="opacity:1;fill:#000000;fill-opacity:1;stroke:#ffffff;stroke-width:1.042503;stroke-miterlimit:11;stroke-dasharray:none;stroke-dashoffset:4.57999992;stroke-opacity:1"
       id="path5918-9-6-3-6" />
    <path
       sodipodi:nodetypes="ccccc"
       inkscape:connector-curvature="0"
       d="m 75.229801,24.936403 h -11.64954 -11.64954 l 11.64954,-16.375 z"
       style="opacity:1;fill:#000000;fill-opacity:1;stroke:#ffffff;stroke-width:1.042503;stroke-miterlimit:11;stroke-dasharray:none;stroke-dashoffset:4.57999992;stroke-opacity:1"
       id="path6010-5-4" />
    <rect
       y="30.811401"
       x="61.86821"
       height="9.125"
       width="3.4240804"
       id="rect5993-1"
       style="opacity:1;fill:#ffffff;fill-opacity:1;stroke:#ffffff;stroke-width:1.042503;stroke-miterlimit:11;stroke-dasharray:none;stroke-dashoffset:4.57999992;stroke-opacity:1" />
    <path
       sodipodi:nodetypes="cccccccc"
       inkscape:connector-curvature="0"
       d="M 152.53666,86.284988 V 58.704645 H 53.578962 l 5.552843,25.132745 v 25.0726 l 7.368195,16 89,-0.5 z"
       style="opacity:1;fill:#000000;fill-opacity:1;stroke:#ffffff;stroke-width:1.042503;stroke-miterlimit:11;stroke-dasharray:none;stroke-dashoffset:4.57999992;stroke-opacity:1"
       id="path5968-4" />
    <path
       sodipodi:nodetypes="ccccc"
       inkscape:connector-curvature="0"
       d="m 174.1875,86.284988 h -11.64954 -11.64954 l 11.64954,-16.375 z"
       style="opacity:1;fill:#000000;fill-opacity:1;stroke:#ffffff;stroke-width:1.042503;stroke-miterlimit:11;stroke-dasharray:none;stroke-dashoffset:4.57999992;stroke-opacity:1"
       id="path6010-5" />
    <path
       sodipodi:nodetypes="ccccccccccccccccccc"
       inkscape:connector-curvature="0"
       d="m 152.53666,108.90999 h -14.21953 v 9.57979 h -14.21952 v -9.57979 h -14.21952 v 9.57979 H 95.658566 v -9.57979 H 81.439043 v 9.57979 H 67.219521 v -9.57979 H 52.999999 v 23.14324 H 172.53926 V 86.284988 h -20.0026 z"
       style="opacity:1;fill:#000000;fill-opacity:1;stroke:#ffffff;stroke-width:1.042503;stroke-miterlimit:11;stroke-dasharray:none;stroke-dashoffset:4.57999992;stroke-opacity:1"
       id="path5918-9-6-3" />
    <path
       inkscape:connector-curvature="0"
       id="path6142-6"
       d="m 115.6511,172.82289 h 10.74424 v -6.51616 h -10.75679 z"
       style="opacity:1;fill:#000000;fill-opacity:1;stroke:#ffffff;stroke-width:1.042503;stroke-miterlimit:11;stroke-dasharray:none;stroke-dashoffset:4.57999992;stroke-opacity:1" />
    <path
       inkscape:connector-curvature="0"
       id="path6150-4-5"
       d="m 104.43023,166.30673 5.00947,-18.70209"
       style="opacity:1;fill:none;fill-opacity:1;stroke:#ffffff;stroke-width:1.042503;stroke-miterlimit:11;stroke-dasharray:none;stroke-dashoffset:4.57999992;stroke-opacity:1" />
    <path
       sodipodi:nodetypes="cc"
       inkscape:connector-curvature="0"
       id="path6150-2-7"
       d="m 104.43023,166.30673 13.29464,-13.18674"
       style="opacity:1;fill:none;fill-opacity:1;stroke:#ffffff;stroke-width:1.042503;stroke-miterlimit:11;stroke-dasharray:none;stroke-dashoffset:4.57999992;stroke-opacity:1" />
    <path
       sodipodi:nodetypes="cc"
       inkscape:connector-curvature="0"
       id="path6150-25-1"
       d="m 104.43023,166.30673 17.84162,-4.77067"
       style="opacity:1;fill:none;fill-opacity:1;stroke:#ffffff;stroke-width:1.042503;stroke-miterlimit:11;stroke-dasharray:none;stroke-dashoffset:4.57999992;stroke-opacity:1" />
    <path
       sodipodi:nodetypes="cscsccc"
       inkscape:connector-curvature="0"
       d="m 115.6511,199.09965 v -32.32226 c 0,-6.91126 -5.51814,-11.22474 -11.22087,-11.22474 -5.702737,0 -11.220873,4.31348 -11.220873,11.22474 v 32.32226 h 11.220873 z"
       style="opacity:1;fill:#ffffff;fill-opacity:1;stroke:#ffffff;stroke-width:1.042503;stroke-miterlimit:11;stroke-dasharray:none;stroke-dashoffset:4.57999992;stroke-opacity:1"
       id="path6125-1" />
    <path
       inkscape:connector-curvature="0"
       id="path6142-4"
       d="M 93.209357,172.82289 H 82.465122 v -6.51616 h 10.756781 z"
       style="opacity:1;fill:#000000;fill-opacity:1;stroke:#ffffff;stroke-width:1.042503;stroke-miterlimit:11;stroke-dasharray:none;stroke-dashoffset:4.57999992;stroke-opacity:1" />
    <path
       inkscape:connector-curvature="0"
       id="path6150-4-6"
       d="M 104.43023,166.30673 99.420761,147.60464"
       style="opacity:1;fill:none;fill-opacity:1;stroke:#ffffff;stroke-width:1.042503;stroke-miterlimit:11;stroke-dasharray:none;stroke-dashoffset:4.57999992;stroke-opacity:1" />
    <path
       sodipodi:nodetypes="cc"
       inkscape:connector-curvature="0"
       id="path6150-2-0"
       d="M 104.43023,166.30673 91.135585,153.11999"
       style="opacity:1;fill:none;fill-opacity:1;stroke:#ffffff;stroke-width:1.042503;stroke-miterlimit:11;stroke-dasharray:none;stroke-dashoffset:4.57999992;stroke-opacity:1" />
    <path
       sodipodi:nodetypes="cc"
       inkscape:connector-curvature="0"
       id="path6150-25-6"
       d="M 104.43023,166.30673 86.588607,161.53606"
       style="opacity:1;fill:none;fill-opacity:1;stroke:#ffffff;stroke-width:1.042503;stroke-miterlimit:11;stroke-dasharray:none;stroke-dashoffset:4.57999992;stroke-opacity:1" />
    <rect
       y="70.447319"
       x="104.43023"
       height="9.125"
       width="3.4240804"
       id="rect5993-0"
       style="opacity:1;fill:#ffffff;fill-opacity:1;stroke:#ffffff;stroke-width:1.042503;stroke-miterlimit:11;stroke-dasharray:none;stroke-dashoffset:4.57999992;stroke-opacity:1" />
    <rect
       y="70.447319"
       x="78.430229"
       height="9.125"
       width="3.4240804"
       id="rect5993-0-2"
       style="opacity:1;fill:#ffffff;fill-opacity:1;stroke:#ffffff;stroke-width:1.042503;stroke-miterlimit:11;stroke-dasharray:none;stroke-dashoffset:4.57999992;stroke-opacity:1" />
    <rect
       y="70.447319"
       x="130.43024"
       height="9.125"
       width="3.4240804"
       id="rect5993-0-9"
       style="opacity:1;fill:#ffffff;fill-opacity:1;stroke:#ffffff;stroke-width:1.042503;stroke-miterlimit:11;stroke-dasharray:none;stroke-dashoffset:4.57999992;stroke-opacity:1" />
    <rect
       y="92.159988"
       x="160.82591"
       height="9.125"
       width="3.4240804"
       id="rect5993"
       style="opacity:1;fill:#ffffff;fill-opacity:1;stroke:#ffffff;stroke-width:1.042503;stroke-miterlimit:11;stroke-dasharray:none;stroke-dashoffset:4.57999992;stroke-opacity:1" />
  </g>
  <path
     style="opacity:1;fill:#009645;fill-opacity:1;stroke:#000000;stroke-width:1.00199997;stroke-miterlimit:11;stroke-dasharray:none;stroke-dashoffset:4.57999992;stroke-opacity:1"
     d="m 15.31353,194.97906 178.26296,2e-5 c -38.44817,57.64686 -128.347705,71.23157 -178.26296,-2e-5 z"
     id="path5880"
     inkscape:connector-curvature="0"
     sodipodi:nodetypes="ccc" />
  <path
     id="path4212-6-2"
     style="fill:none;fill-opacity:1;fill-rule:evenodd;stroke:#000000;stroke-width:2;stroke-linecap:butt;stroke-miterlimit:4;stroke-dasharray:none;stroke-dashoffset:0;stroke-opacity:1"
     d="M 1.000033,149.10355 V 0.9999984 H 207.89951 V 149.10355 c 0,51.44535 -51.75421,94.56785 -103.46927,94.56785 -51.71506,0 -103.430207,-43.1225 -103.430207,-94.56785 z"
     inkscape:connector-curvature="0"
     sodipodi:nodetypes="sccscs" />
</svg>

<?xml version="1.0" encoding="UTF-8"?>
<svg version="1.0" viewBox="0 0 208.86 244.66" xmlns="http://www.w3.org/2000/svg" xmlns:cc="http://creativecommons.org/ns#" xmlns:dc="http://purl.org/dc/elements/1.1/" xmlns:rdf="http://www.w3.org/1999/02/22-rdf-syntax-ns#">
<metadata>
<rdf:RDF>
<cc:Work rdf:about="">
<dc:format>image/svg+xml</dc:format>
<dc:type rdf:resource="http://purl.org/dc/dcmitype/StillImage"/>
<dc:title/>
</cc:Work>
</rdf:RDF>
</metadata>
<path d="m1 149.1v-148.1h206.9v148.1c0 51.445-51.754 94.568-103.47 94.568s-103.43-43.122-103.43-94.568z" fill="#fff" fill-rule="evenodd" stroke="#000" stroke-width="2"/>
<g transform="matrix(.96109 0 0 .96121 4.0762 3.9559)" stroke="#fff" stroke-dashoffset="4.58" stroke-miterlimit="11" stroke-width="1.0425">
<path d="m167.35 181.39-4.7135-29.89 9.9047-19.445h-121.8l-8.3085 49.335z"/>
<path d="m31.25 199.35 5.75-18.319h135.5l5.75 18.319z"/>
<path d="m104.63 199.16h-18.488v-33.762c0-10.115 8.9302-18.113 18.326-18.113 9.3958 0 18.249 7.9984 18.249 18.113v33.762h-18.488"/>
<path d="m73.582 24.936v12.625h10.22v7.5798h10.22v-7.5798h14.22v7.5798h10.22v-7.5798h14.22v7.5798h10.22v-7.5798h12.22v21.143h-101.54v-33.768z"/>
<path d="m75.23 24.936h-23.299l11.65-16.375z"/>
<rect x="61.868" y="30.811" width="3.4241" height="9.125" fill="#fff"/>
<path d="m152.54 86.285v-27.58h-98.958l5.5528 25.133v25.073l7.3682 16 89-0.5z"/>
<path d="m174.19 86.285h-23.299l11.65-16.375z"/>
<path d="m152.54 108.91h-14.22v9.5798h-14.22v-9.5798h-14.22v9.5798h-14.22v-9.5798h-14.22v9.5798h-14.22v-9.5798h-14.22v23.143h119.54v-45.768h-20.003z"/>
<path d="m115.65 172.82h10.744v-6.5162h-10.757z"/>
<path d="m104.43 166.31 5.0095-18.702" fill="none"/>
<path d="m104.43 166.31 13.295-13.187" fill="none"/>
<path d="m104.43 166.31 17.842-4.7707" fill="none"/>
<path d="m115.65 199.1v-32.322c0-6.9113-5.5181-11.225-11.221-11.225-5.7027 0-11.221 4.3135-11.221 11.225v32.322h11.221z" fill="#fff"/>
<path d="m93.209 172.82h-10.744v-6.5162h10.757z"/>
<path d="m104.43 166.31-5.0095-18.702" fill="none"/>
<path d="m104.43 166.31-13.295-13.187" fill="none"/>
<path d="m104.43 166.31-17.842-4.7707" fill="none"/>
<rect x="104.43" y="70.447" width="3.4241" height="9.125" fill="#fff"/>
<rect x="78.43" y="70.447" width="3.4241" height="9.125" fill="#fff"/>
<rect x="130.43" y="70.447" width="3.4241" height="9.125" fill="#fff"/>
<rect x="160.83" y="92.16" width="3.4241" height="9.125" fill="#fff"/>
</g>
<path d="m15.314 194.98 178.26 2e-5c-38.448 57.647-128.35 71.232-178.26-2e-5z" fill="#009645" stroke="#000" stroke-dashoffset="4.58" stroke-miterlimit="11" stroke-width="1.002"/>
<path d="m1 149.1v-148.1h206.9v148.1c0 51.445-51.754 94.568-103.47 94.568s-103.43-43.122-103.43-94.568z" fill="none" stroke="#000" stroke-width="2"/>
</svg>
